X: 135
T: No_219_Ball_Game_Song_(b).krn
N: Derived from No_219_Ball_Game_Song_(b).krn
%%abc-version 2.0
%%abcx-abcm2ps-target-version 5.9.1 (29 Sep 2008)
%%abc-creator hum2abc beta
%%abcx-conversion-date 2019/03/15 08:38:45
%%humdrum-veritas 3709684289
%%humdrum-veritas-data 2029221850
%%linebreak <none>
%%barnumbers 0
L: 1/8
M: 3/4
K: Bb clef=bass
[K:clef=bass][M:3/4]z4CB, | 
C2CB, B,F, | 
G,2G,F, F,D, | 
F,2F, z F,D, | 
F,2F, z B,F, | 
G,2G,F, F,D, | 
F,2F, z CB, | 
C2CB, B,F, | 
G,2G,F, F,D, | 
F,2F, z F,D, | 
F,2F,2z2 | 
C zB,2B,2 |]  



